src/assets/svg/nimi-text.svg

<svg fill="none" height="24" viewBox="0 0 71 24" width="71" xmlns="http://www.w3.org/2000/svg"><path d="m18.2354 3.95575c-.0746-1.05469-.5007-1.75781-1.2891-2.10938-.799-.35156-1.5873-.35156-2.3757 0-.7884.35157-1.2145 1.05469-1.2678 2.10938.0107 1.72586.0107 3.45172.0214 5.17758 0 .73509 0 1.47017.0106 2.20527-2.8658-2.89775-6.00854-5.44392-9.4496-7.64918-.60725-.35156-1.17188-.46875-1.70455-.33026-.09588.01066-.18111.03196-.26634.05327-.70313.21307-1.193184.59659-1.45952 1.16122-.276989.56464-.3622169 1.18254-.266336 1.86436.692474 5.14559 1.821736 10.19539 3.366486 15.14919.37287.9908 1.00143 1.5448 1.86436 1.6726.87358.1278 1.62997-.0746 2.29049-.6286.66051-.5433.86292-1.3316.59659-2.3544-.92685-2.9616-1.6939-5.9552-2.3118-8.9808 2.87643 2.4609 5.57172 5.1136 8.08592 7.9688.8097.767 1.7046.9375 2.6528.5113.9481-.4261 1.4701-1.1719 1.5447-2.2585-.0107-4.5171-.0213-9.03413-.0426-13.56185zm10.5951-.55397c-.6393-.15981-1.2678-.08523-1.8751.23437-.6072.3196-.9907.80966-1.1505 1.48083-.1598.80966-.3196 1.62998-.4794 2.43964-.8203 4.11218-1.63 8.22448-2.4397 12.33668-.1278.6712-.0426 1.2997.2451 1.8644.2983.5646.7883.9481 1.4701 1.1612.6499.1598 1.2785.0746 1.875-.245.6073-.309.9908-.8097 1.1613-1.4809.3196-1.6406.6498-3.2812.9694-4.9219.6499-3.2812 1.2998-6.56249 1.9496-9.84375.1279-.68182.0426-1.29972-.2557-1.86435s-.7883-.95881-1.4701-1.16122zm29.2385 11.27132c-2.5461-4.027-4.5703-8.29901-6.0618-12.82673-.49-1.203836-1.2784-1.7897759-2.3437-1.7578156-1.076.0426136-1.875.6285536-2.4077 1.7578156l-2.7699 7.1165c-1.63-2.12003-3.2813-4.21876-4.9538-6.30684-.6179-.64986-1.385-.86292-2.2905-.6392-.5434.09588-1.0121.34091-1.4063.72443-.3835.39418-.6072.92685-.6605 1.60867-.2344 5.14562-.1065 10.29127.3942 15.42617.0745.6818.3196 1.2678.7457 1.7472.4262.4794 1.0014.7138 1.7152.7138.6499 0 1.2252-.2344 1.7259-.7138s.7457-1.0547.7457-1.7472c-.0106-.1065-.0106-.2024-.0213-.3089-.0106-.1918-.0213-.3942-.032-.5966-.0106-.1918-.0319-.3729-.0745-.5327-.2024-2.397-.3196-4.7834-.3622-7.1698 1.0227 1.3211 2.0454 2.6527 3.0468 3.9951.7138.8736 1.5341 1.2571 2.4503 1.1506.9056-.1172 1.5981-.6925 2.0561-1.7366.6819-1.7684 1.3743-3.5263 2.0562-5.29472 1.2038 2.72732 2.6101 5.35872 4.1974 7.88352.6073.863 1.353 1.2465 2.2266 1.1399.8736-.0958 1.5554-.49 2.0561-1.1931.4901-.6925.4794-1.5022-.032-2.4397zm10.9573-11.27132c-.6392-.15981-1.2677-.08523-1.875.23437-.6072.3196-.9908.80966-1.1506 1.48083-.1598.80966-.3196 1.62998-.4794 2.43964-.8203 4.11218-1.6299 8.22448-2.4396 12.33668-.1278.6712-.0426 1.2997.245 1.8644.2983.5646.7884.9481 1.4702 1.1612.6499.1598 1.2784.0746 1.875-.245.6073-.309.9908-.8097 1.1612-1.4809.3196-1.6406.6499-3.2812.9695-4.9219.6499-3.2812 1.2997-6.56249 1.9496-9.84375.1278-.68182.0426-1.29972-.2557-1.86435s-.7884-.95881-1.4702-1.16122z" fill="#fff"/></svg>

<svg width="71" height="24" viewBox="0 0 71 24" fill="none" xmlns="http://www.w3.org/2000/svg">
<path d="M18.2354 3.95575C18.1608 2.90106 17.7347 2.19794 16.9463 1.84637C16.1473 1.49481 15.359 1.49481 14.5706 1.84637C13.7822 2.19794 13.3561 2.90106 13.3028 3.95575C13.3135 5.68161 13.3135 7.40747 13.3242 9.13333C13.3242 9.86842 13.3242 10.6035 13.3348 11.3386C10.469 8.44085 7.32626 5.89468 3.8852 3.68942C3.27795 3.33786 2.71332 3.22067 2.18065 3.35916C2.08477 3.36982 1.99954 3.39112 1.91431 3.41243C1.21118 3.6255 0.721126 4.00902 0.45479 4.57365C0.177801 5.13829 0.0925731 5.75619 0.188454 6.43801C0.880928 11.5836 2.01019 16.6334 3.55494 21.5872C3.92781 22.578 4.55637 23.132 5.4193 23.2598C6.29288 23.3876 7.04927 23.1852 7.70979 22.6312C8.3703 22.0879 8.57271 21.2996 8.30638 20.2768C7.37953 17.3152 6.61248 14.3216 5.99458 11.296C8.87101 13.7569 11.5663 16.4096 14.0805 19.2648C14.8902 20.0318 15.7851 20.2023 16.7333 19.7761C17.6814 19.35 18.2034 18.6042 18.278 17.5176C18.2673 13.0005 18.2567 8.48347 18.2354 3.95575ZM28.8305 3.40178C28.1912 3.24197 27.5627 3.31655 26.9554 3.63615C26.3482 3.95575 25.9647 4.44581 25.8049 5.11698C25.6451 5.92664 25.4853 6.74696 25.3255 7.55662C24.5052 11.6688 23.6955 15.7811 22.8858 19.8933C22.758 20.5645 22.8432 21.193 23.1309 21.7577C23.4292 22.3223 23.9192 22.7058 24.601 22.9189C25.2509 23.0787 25.8795 22.9935 26.476 22.6739C27.0833 22.3649 27.4668 21.8642 27.6373 21.193C27.9569 19.5524 28.2871 17.9118 28.6067 16.2711C29.2566 12.9899 29.9065 9.70861 30.5563 6.42735C30.6842 5.74553 30.5989 5.12763 30.3006 4.563C30.0023 3.99837 29.5123 3.60419 28.8305 3.40178ZM58.069 14.6731C55.5229 10.6461 53.4987 6.37409 52.0072 1.84637C51.5172 0.642534 50.7288 0.0565941 49.6635 0.0885544C48.5875 0.131168 47.7885 0.717108 47.2558 1.84637L44.4859 8.96287C42.8559 6.84284 41.2046 4.74411 39.5321 2.65603C38.9142 2.00617 38.1471 1.79311 37.2416 2.01683C36.6982 2.11271 36.2295 2.35774 35.8353 2.74126C35.4518 3.13544 35.2281 3.66811 35.1748 4.34993C34.9404 9.49555 35.0683 14.6412 35.569 19.7761C35.6435 20.4579 35.8886 21.0439 36.3147 21.5233C36.7409 22.0027 37.3161 22.2371 38.0299 22.2371C38.6798 22.2371 39.2551 22.0027 39.7558 21.5233C40.2565 21.0439 40.5015 20.4686 40.5015 19.7761C40.4909 19.6696 40.4909 19.5737 40.4802 19.4672C40.4696 19.2754 40.4589 19.073 40.4482 18.8706C40.4376 18.6788 40.4163 18.4977 40.3737 18.3379C40.1713 15.9409 40.0541 13.5545 40.0115 11.1681C41.0342 12.4892 42.0569 13.8208 43.0583 15.1632C43.7721 16.0368 44.5924 16.4203 45.5086 16.3138C46.4142 16.1966 47.1067 15.6213 47.5647 14.5772C48.2466 12.8088 48.939 11.0509 49.6209 9.28248C50.8247 12.0098 52.231 14.6412 53.8183 17.166C54.4256 18.029 55.1713 18.4125 56.0449 18.3059C56.9185 18.2101 57.6003 17.8159 58.101 17.1128C58.5911 16.4203 58.5804 15.6106 58.069 14.6731ZM69.0263 3.40178C68.3871 3.24197 67.7586 3.31655 67.1513 3.63615C66.5441 3.95575 66.1605 4.44581 66.0007 5.11698C65.8409 5.92664 65.6811 6.74696 65.5213 7.55662C64.701 11.6688 63.8914 15.7811 63.0817 19.8933C62.9539 20.5645 63.0391 21.193 63.3267 21.7577C63.625 22.3223 64.1151 22.7058 64.7969 22.9189C65.4468 23.0787 66.0753 22.9935 66.6719 22.6739C67.2792 22.3649 67.6627 21.8642 67.8331 21.193C68.1527 19.5524 68.483 17.9118 68.8026 16.2711C69.4525 12.9899 70.1023 9.70861 70.7522 6.42735C70.88 5.74553 70.7948 5.12763 70.4965 4.563C70.1982 3.99837 69.7081 3.60419 69.0263 3.40178Z" fill="white"/>
</svg>
